packages/react-icons/icons/exclamation-point-triangle.svg

<svg width="24" height="24" viewBox="0 0 24 24" xmlns="http://www.w3.org/2000/svg">
<path fill-rule="evenodd" clip-rule="evenodd" d="M4.47 20.5036C2.93 20.5036 1.97 18.8336 2.74 17.5036L10.27 4.49359C11.04 3.16359 12.96 3.16359 13.73 4.49359L21.26 17.5036C22.03 18.8336 21.07 20.5036 19.53 20.5036H4.47ZM19.53 18.5036L12 5.49359L4.47 18.5036H19.53ZM11 10.5036V12.5036C11 13.0536 11.45 13.5036 12 13.5036C12.55 13.5036 13 13.0536 13 12.5036V10.5036C13 9.95359 12.55 9.50359 12 9.50359C11.45 9.50359 11 9.95359 11 10.5036ZM13 17.5036V15.5036H11V17.5036H13Z" />
</svg>

<svg xmlns="http://www.w3.org/2000/svg" width="24" height="24"><path fill-rule="evenodd" d="M4.47 20.504c-1.54 0-2.5-1.67-1.73-3l7.53-13.01c.77-1.33 2.69-1.33 3.46 0l7.53 13.01c.77 1.33-.19 3-1.73 3H4.47Zm15.06-2L12 5.494l-7.53 13.01h15.06Zm-8.53-8v2c0 .55.45 1 1 1s1-.45 1-1v-2c0-.55-.45-1-1-1s-1 .45-1 1Zm2 7v-2h-2v2h2Z" clip-rule="evenodd"/></svg>
